X:114
T:Violin Partita No.2 - Chaconne Theme (BWV 1004)
C:Bach, J.S.
M:3/4
L:1/8
Q:1/4=56
K:Dmin
|:A2|d4 cd|e2 dc B2|c4 AB|c4 A2|
F4 GA|B2 AG F2|G4 AB|d4:|

